html/beta/img/svg/brands/pwc-logo.svg

<svg xmlns="http://www.w3.org/2000/svg" width="122.282" height="142.897">
    <defs>
        <style>
            .cls-2{fill:#0d0d0d}.cls-3{fill:#90332d}
        </style>
    </defs>
    <g id="PWC" transform="translate(-139.007 -121.906)">
        <path id="Rectangle_993" data-name="Rectangle 993" transform="translate(139.289 205.803)" style="fill:none" d="M0 0h122v59H0z"/>
        <g id="Group_2354" data-name="Group 2354" transform="translate(139.007 181.338)">
            <path id="Path_1456" data-name="Path 1456" class="cls-2" d="m139.1 316.2 2.689-.236.519-.613v-25.9h-3.3v-2.264l8.727-2.784h2.453v3.161c4.34-2.547 6.038-3.208 8.256-3.208 5.189 0 9.152 4.907 9.152 11.369 0 7.548-5.425 12.6-13.445 12.6-.943 0-2.453-.094-3.963-.236v7.265l.613.613 3.114.236-.094 2.5H139.1zm11.086-10.8a6.967 6.967 0 0 0 1.274.094c4.859 0 7.453-3.019 7.453-8.68 0-4.812-2.123-7.359-6.038-7.359a18.5 18.5 0 0 0-2.689.236z" transform="translate(-139.007 -284.361)"/>
            <path id="Path_1457" data-name="Path 1457" class="cls-2" d="M226.53 284.5a23.834 23.834 0 0 1 .613 4.01l.519 11.511L234.55 287v-1.368l7.124-.566.9 17.927 6.086-8.445-1.321-8.68a4.814 4.814 0 0 1 3.632-1.51 3.569 3.569 0 0 1 3.868 3.68c0 2.311-1.273 5.048-4.434 9.435-.991 1.368-3.916 5-8.727 10.85h-5.567l-1.089-16.223-8.822 16.226h-5.991l.472-2.123-.755-17.077-4.671-.755v-1.887l8.539-1.981z" transform="translate(-187.361 -284.361)"/>
            <path id="Path_1458" data-name="Path 1458" class="cls-2" d="M338.031 286.909c-4.01.613-6.086 3.585-6.086 8.727 0 5.189 2.784 8.633 6.935 8.633 1.981 0 3.774-.613 7.454-2.406v4.2c-4.482 2.028-7.076 2.641-10.709 2.641-3.916 0-6.652-1.038-8.916-3.3a11.852 11.852 0 0 1-3.444-8.586c0-7.407 5.566-12.454 13.728-12.454 5.425 0 9.152 2.453 9.152 5.991 0 2.359-1.745 3.915-4.34 3.915a6.982 6.982 0 0 1-3.774-1.132z" transform="translate(-255.857 -284.361)"/>
        </g>
        <path id="Rectangle_837" data-name="Rectangle 837" class="cls-3" transform="translate(193.84 161.978)" d="M0 0h23.078v6.087H0z"/>
        <g id="Group_2355" data-name="Group 2355" transform="translate(216.919 121.906)">
            <path id="Rectangle_838" data-name="Rectangle 838" style="fill:#ed813b" d="M0 0h22.571v4.821H0z"/>
            <path id="Rectangle_839" data-name="Rectangle 839" transform="translate(22.571 4.821)" style="fill:#f1a06f" d="M0 0h4.186v6.972H0z"/>
            <path id="Rectangle_840" data-name="Rectangle 840" transform="translate(0 4.821)" style="fill:#dd6032" d="M0 0h22.571v6.972H0z"/>
            <path id="Rectangle_841" data-name="Rectangle 841" transform="translate(26.757 11.793)" style="fill:#f0a434" d="M0 0h11.413v17.247H0z"/>
            <path id="Rectangle_842" data-name="Rectangle 842" transform="translate(22.571 11.793)" style="fill:#e27330" d="M0 0h4.186v17.247H0z"/>
            <path id="Path_1459" data-name="Path 1459" d="M365.925 171.389h8.622v-17.247h-22.57v11.54h13.949z" transform="translate(-351.977 -142.349)" style="fill:#ce5131"/>
            <path id="Rectangle_843" data-name="Rectangle 843" transform="translate(38.17 29.04)" style="fill:#e061a0" d="M0 0h6.084v11.033H0z"/>
            <path id="Rectangle_844" data-name="Rectangle 844" transform="translate(26.757 29.04)" style="fill:#d54d32" d="M0 0h11.413v11.033H0z"/>
            <path id="Rectangle_845" data-name="Rectangle 845" transform="translate(22.571 29.04)" style="fill:#c54432" d="M0 0h4.186v11.033H0z"/>
            <path id="Rectangle_846" data-name="Rectangle 846" transform="translate(13.949 29.04)" style="fill:#ae3a31" d="M0 0h8.622v11.033H0z"/>
            <path id="Rectangle_847" data-name="Rectangle 847" transform="translate(0 23.333)" style="fill:#ac4630" d="M0 0h13.949v5.707H0z"/>
            <path id="Rectangle_848" data-name="Rectangle 848" class="cls-3" transform="translate(0 29.04)" d="M0 0h13.949v11.033H0z"/>
        </g>
    </g>
</svg>

<svg xmlns="http://www.w3.org/2000/svg" width="122.166" height="93.775" viewBox="0 0 122.166 93.775">
    <defs>
        <style>
            .cls-1{fill:#0d0d0d}.cls-2{fill:#90332d}
        </style>
    </defs>
    <g id="Group_2622" transform="translate(-139.007 -121.906)">
        <g id="Group_2354" transform="translate(139.007 181.338)">
            <path id="Path_1456" d="M139.1 316.2l2.689-.236.519-.613v-25.9h-3.3v-2.264l8.727-2.784h2.453v3.161c4.34-2.547 6.038-3.208 8.256-3.208 5.189 0 9.152 4.907 9.152 11.369 0 7.548-5.425 12.6-13.445 12.6-.943 0-2.453-.094-3.963-.236v7.265l.613.613 3.114.236-.094 2.5H139.1zm11.086-10.8a6.967 6.967 0 0 0 1.274.094c4.859 0 7.453-3.019 7.453-8.68 0-4.812-2.123-7.359-6.038-7.359a18.5 18.5 0 0 0-2.689.236z" class="cls-1" transform="translate(-139.007 -284.361)"/>
            <path id="Path_1457" d="M226.53 284.5a23.834 23.834 0 0 1 .613 4.01l.519 11.511L234.55 287v-1.368l7.124-.566.9 17.927 6.086-8.445-1.321-8.68a4.814 4.814 0 0 1 3.632-1.51 3.569 3.569 0 0 1 3.868 3.68c0 2.311-1.273 5.048-4.434 9.435-.991 1.368-3.916 5-8.727 10.85h-5.567l-1.089-16.223-8.822 16.226h-5.991l.472-2.123-.755-17.077-4.671-.755v-1.887l8.539-1.981z" class="cls-1" transform="translate(-187.361 -284.361)"/>
            <path id="Path_1458" d="M338.031 286.909c-4.01.613-6.086 3.585-6.086 8.727 0 5.189 2.784 8.633 6.935 8.633 1.981 0 3.774-.613 7.454-2.406v4.2c-4.482 2.028-7.076 2.641-10.709 2.641-3.916 0-6.652-1.038-8.916-3.3a11.852 11.852 0 0 1-3.444-8.586c0-7.407 5.566-12.454 13.728-12.454 5.425 0 9.152 2.453 9.152 5.991 0 2.359-1.745 3.915-4.34 3.915a6.982 6.982 0 0 1-3.774-1.132z" class="cls-1" transform="translate(-255.857 -284.361)"/>
        </g>
        <path id="Rectangle_837" d="M0 0H23.078V6.087H0z" class="cls-2" transform="translate(193.84 161.978)"/>
        <g id="Group_2355" transform="translate(216.919 121.906)">
            <path id="Rectangle_838" fill="#ed813b" d="M0 0H22.571V4.821H0z" transform="translate(0 0)"/>
            <path id="Rectangle_839" fill="#f1a06f" d="M0 0H4.186V6.972H0z" transform="translate(22.571 4.821)"/>
            <path id="Rectangle_840" fill="#dd6032" d="M0 0H22.571V6.972H0z" transform="translate(0 4.821)"/>
            <path id="Rectangle_841" fill="#f0a434" d="M0 0H11.413V17.247H0z" transform="translate(26.757 11.793)"/>
            <path id="Rectangle_842" fill="#e27330" d="M0 0H4.186V17.247H0z" transform="translate(22.571 11.793)"/>
            <path id="Path_1459" fill="#ce5131" d="M365.925 171.389h8.622v-17.247h-22.57v11.54h13.949z" transform="translate(-351.977 -142.349)"/>
            <path id="Rectangle_843" fill="#e061a0" d="M0 0H6.084V11.033H0z" transform="translate(38.17 29.04)"/>
            <path id="Rectangle_844" fill="#d54d32" d="M0 0H11.413V11.033H0z" transform="translate(26.757 29.04)"/>
            <path id="Rectangle_845" fill="#c54432" d="M0 0H4.186V11.033H0z" transform="translate(22.571 29.04)"/>
            <path id="Rectangle_846" fill="#ae3a31" d="M0 0H8.622V11.033H0z" transform="translate(13.949 29.04)"/>
            <path id="Rectangle_847" fill="#ac4630" d="M0 0H13.949V5.707H0z" transform="translate(0 23.333)"/>
            <path id="Rectangle_848" d="M0 0H13.949V11.033H0z" class="cls-2" transform="translate(0 29.04)"/>
        </g>
    </g>
</svg>
